X: 13384
T: Fleur De Mandragore
R: reel
M: 4/4
K: Gmajor
|:DGGD FGA2|GBdc BGGE|DGGD FGA2|D3c BGGE|
D3G FGA2|GBdc BGGE|DGGD FGA2|1 AGAc BGG2:|2 AGAc BGBd||
|:g3d BG G2|BGdG BABd|g3d BGAB|cdef gfef|
g3d BG G2|BGdG BABd|cedc BGAB|1 cBAG FAdf:|2 cBAG FDFA||

